X: 12504
T: Farewell To Galway
R: reel
M: 4/4
K: Adorian
B|:cAeA c ~A3|BGdc BAGB|cAeA c ~A3|dcBc ~A3 B|
cAeA c ~A3|~d3 cBAG B|AcBd ced=f|1 ea^gb ~a3 B:|2 ea^gb ~a3 b||
|:c' z agag ef|gedc BAGb|c'b agag eg|(3 fga ^gb ~a3 b|
c' z agag ef|gedc BAGB|AcBd ced=f|1 ea^gb ~a3 b:|2 ea^gb ~a3 B||

